svgs/regular/left-from-line.svg

<svg xmlns="http://www.w3.org/2000/svg" viewBox="0 0 448 512"><!-- Font Awesome Pro 6.0.0-alpha2 by @fontawesome - https://fontawesome.com License - https://fontawesome.com/license (Commercial License) --><path d="M240 378.914V336H304C330.508 336 352 314.51 352 288V224C352 197.49 330.508 176 304 176H240V132.713C240 91.082 190.629 69.189 159.773 97.137L9.375 233.375C3.125 239.625 0 247.812 0 256S3.125 272.375 9.375 278.625L159.824 414.533C190.691 442.418 240 420.512 240 378.914ZM54.633 256L192 134.633V224H304V288H192V377.367L54.633 256ZM448 424V88C448 74.75 437.25 64 424 64S400 74.75 400 88V424C400 437.25 410.75 448 424 448S448 437.25 448 424Z"/></svg>

<svg xmlns="http://www.w3.org/2000/svg" viewBox="0 0 448 512"><!--! Font Awesome Pro 6.0.0-alpha3 by @fontawesome - https://fontawesome.com License - https://fontawesome.com/license (Commercial License) --><path d="M240 378.9V336h64c26.51 0 47.95-21.49 47.95-48v-64C351.9 197.5 330.5 176 304 176h-64V132.7c0-41.63-49.37-63.52-80.23-35.58L9.375 233.4C3.125 239.6 0 247.8 0 256s3.125 16.38 9.375 22.62l150.4 135.9C190.7 442.4 240 420.5 240 378.9zM54.63 256L192 134.6V224h112v64H192v89.37L54.63 256zM448 424V88C448 74.75 437.3 64 424 64S400 74.75 400 88v336c0 13.25 10.75 24 24 24S448 437.3 448 424z"/></svg>
